X: 3339
T: Fætter Mikkel
B:[[Notböcker/Melodier til gamle danske Almuedanse for Violin solo]]
O:Danmark
Z:Søren Bak Vestergaard
M: 2/4
L: 1/8
K: G
(G/A/)|BGG (A/B/)|cAA (d/c/)|BG cB|A/G/F/E/ D(G/A/)|\
BGG (A/B/)|cAA (d/c/)|BG AF|G2 z:| |:(B/c/)|dd dg|ecc (c/d/)|\
ee ea|fdd (G/A/)|BGG (A/B/)|cAA (d/c/)|BG {/B}A/G/A/B/|G2 z:|
(:musicend:)
(:music:)
